; generated by PrusaSlicer 2.3.1+win64 on 2024-06-13 at 18:45:18 UTC

; 

; external perimeters extrusion width = 0.45mm
; perimeters extrusion width = 0.45mm
; infill extrusion width = 0.45mm
; solid infill extrusion width = 0.45mm
; top infill extrusion width = 0.40mm
; first layer extrusion width = 0.42mm

M73 P0 R71
M201 X9000 Y9000 Z500 E10000 ; sets maximum accelerations, mm/sec^2
M203 X500 Y500 Z12 E120 ; sets maximum feedrates, mm/sec
M204 P2000 R1500 T2000 ; sets acceleration (P, T) and retract acceleration (R), mm/sec^2
M205 X10.00 Y10.00 Z0.20 E2.50 ; sets the jerk limits, mm/sec
M205 S0 T0 ; sets the minimum extruding and travel feed rate, mm/sec
M107
;TYPE:Custom
M862.3 P "MK2S" ; printer model check
M862.1 P0.4 ; nozzle diameter check
M115 U3.2.3 ; tell printer latest fw version
G90 ; use absolute coordinates
M83 ; extruder relative mode
M204 S2000 T1500 ; MK2 firmware only supports the old M204 format
M104 S220 ; set extruder temp
M140 S80 ; set bed temp
M190 S80 ; wait for bed temp
M109 S220 ; wait for extruder temp
G28 W ; home all without mesh bed level
G80 ; mesh bed leveling
G1 Y-3.0 F1000.0 ; go outside print area
G92 E0.0
G1 X60.0 E9.0  F1000.0 ; intro line
G1 X100.0 E12.5 F1000.0 ; intro line
G92 E0.0
G21 ; set units to millimeters
G90 ; use absolute coordinates
M83 ; use relative distances for extrusion
M900 K0.06 ; Filament gcode LA 1.5
M900 K30 ; Filament gcode LA 1.0
;LAYER_CHANGE
;Z:0.1
;HEIGHT:0.1
;BEFORE_LAYER_CHANGE
G92 E0.0
;0.1


G1 E-0.80000 F2100.000
G1 Z0.400 F7800.000
;AFTER_LAYER_CHANGE
;0.1
G1 X27.584 Y25.386
G1 Z0.100
G1 E0.80000 F2100.000
;TYPE:Skirt
;WIDTH:0.42
G1 F1800.000
G1 X28.538 Y24.549 E0.02105
G1 X29.526 Y23.963 E0.01903
G1 X30.631 Y23.548 E0.01956
G1 X54.086 Y18.346 E0.39807
G1 X54.908 Y18.291 E0.01366
G1 X87.571 Y18.290 E0.54120
G1 X88.807 Y18.412 E0.02057
G1 X90.065 Y18.784 E0.02174
G1 X91.144 Y19.333 E0.02006
G1 X92.104 Y20.080 E0.02016
G1 X92.956 Y21.019 E0.02101
G1 X93.600 Y22.088 E0.02068
G1 X94.061 Y23.354 E0.02233
G1 X94.260 Y24.592 E0.02078
G1 X94.275 Y105.087 E1.33375
G1 X94.194 Y106.014 E0.01541
G1 X93.982 Y106.914 E0.01531
G1 X93.621 Y107.868 E0.01691
G1 X93.129 Y108.737 E0.01655
G1 X92.093 Y109.931 E0.02619
G1 X90.938 Y110.792 E0.02387
G1 X89.488 Y111.416 E0.02615
G1 X88.068 Y111.689 E0.02397
G1 X54.608 Y111.701 E0.55440
G1 X53.514 Y111.553 E0.01830
G1 X30.948 Y106.535 E0.38304
G1 X29.754 Y106.141 E0.02083
G1 X28.708 Y105.570 E0.01975
G1 X27.463 Y104.486 E0.02735
G1 X26.571 Y103.246 E0.02531
G1 X25.954 Y101.700 E0.02758
G1 X25.730 Y100.164 E0.02572
G1 X25.726 Y29.900 E1.16422
G1 X25.807 Y28.980 E0.01531
G1 X26.020 Y28.081 E0.01531
G1 X26.379 Y27.132 E0.01681
G1 X26.868 Y26.268 E0.01645
G1 X27.546 Y25.433 E0.01783
;WIPE_START
G1 F6240.000
G1 X28.538 Y24.549 E-0.42501
G1 X29.439 Y24.014 E-0.33499
;WIPE_END
G1 E-0.04000 F2100.000
G1 Z0.500 F7800.000
G1 X32.367 Y29.930
G1 Z0.100
G1 E0.80000 F2100.000
;TYPE:External perimeter
G1 F1800.000
G1 X32.467 Y29.898 E0.00174
G1 X48.671 Y29.908 E0.26848
G1 X48.841 Y29.843 E0.00302
G1 X54.828 Y24.944 E0.12818
G1 X54.957 Y24.900 E0.00225
G1 X87.545 Y24.901 E0.53997
G1 X87.633 Y24.930 E0.00154
G1 X87.667 Y25.033 E0.00180
G1 X87.667 Y54.967 E0.49598
G1 X87.633 Y55.070 E0.00180
G1 X87.533 Y55.102 E0.00175
G1 X54.957 Y55.100 E0.53977
G1 X54.828 Y55.056 E0.00225
G1 X48.828 Y50.149 E0.12843
G1 X48.669 Y50.092 E0.00280
G1 X32.467 Y50.102 E0.26844
G1 X32.367 Y50.070 E0.00175
G1 X32.333 Y49.967 E0.00180
G1 X32.333 Y30.033 E0.33029
G1 X32.348 Y29.987 E0.00080
;WIPE_START
G1 F6240.000
G1 X32.467 Y29.898 E-0.04745
G1 X34.696 Y29.900 E-0.71255
;WIPE_END
G1 E-0.04000 F2100.000
G1 Z0.500 F7800.000
G1 X87.547 Y25.827
G1 Z0.100
G1 E0.80000 F2100.000
;TYPE:Solid infill
;WIDTH:0.420503
G1 F1800.000
G1 X86.920 Y25.200 E0.01472
G1 X86.355 Y25.200 E0.00936
G1 X87.368 Y26.212 E0.02375
G1 X87.368 Y26.777 E0.00936
G1 X85.791 Y25.200 E0.03699
G1 X85.227 Y25.200 E0.00936
G1 X87.368 Y27.341 E0.05024
G1 X87.368 Y27.905 E0.00936
G1 X84.662 Y25.200 E0.06348
G1 X84.098 Y25.200 E0.00936
G1 X87.368 Y28.470 E0.07672
G1 X87.368 Y29.034 E0.00936
G1 X83.534 Y25.200 E0.08996
G1 X82.969 Y25.200 E0.00936
G1 X87.368 Y29.598 E0.10320
G1 X87.368 Y30.163 E0.00936
G1 X82.405 Y25.200 E0.11644
G1 X81.840 Y25.200 E0.00936
G1 X87.368 Y30.727 E0.12968
G1 X87.368 Y31.291 E0.00936
G1 X81.276 Y25.200 E0.14292
G1 X80.712 Y25.200 E0.00936
G1 X87.368 Y31.856 E0.15616
G1 X87.368 Y32.420 E0.00936
G1 X80.147 Y25.200 E0.16940
G1 X79.583 Y25.200 E0.00936
G1 X87.368 Y32.984 E0.18264
G1 X87.368 Y33.549 E0.00936
G1 X79.019 Y25.200 E0.19589
G1 X78.454 Y25.200 E0.00936
G1 X87.368 Y34.113 E0.20913
G1 X87.368 Y34.677 E0.00936
G1 X77.890 Y25.200 E0.22237
G1 X77.326 Y25.200 E0.00936
G1 X87.368 Y35.242 E0.23561
G1 X87.368 Y35.806 E0.00936
G1 X76.761 Y25.200 E0.24885
G1 X76.197 Y25.199 E0.00936
G1 X87.368 Y36.370 E0.26209
G1 X87.368 Y36.935 E0.00936
G1 X75.633 Y25.199 E0.27533
G1 X75.068 Y25.199 E0.00936
G1 X87.368 Y37.499 E0.28857
G1 X87.368 Y38.063 E0.00936
G1 X74.504 Y25.199 E0.30181
G1 X73.940 Y25.199 E0.00936
G1 X87.368 Y38.628 E0.31505
G1 X87.368 Y39.192 E0.00936
G1 X73.375 Y25.199 E0.32829
G1 X72.811 Y25.199 E0.00936
G1 X87.368 Y39.756 E0.34154
G1 X87.368 Y40.321 E0.00936
G1 X72.246 Y25.199 E0.35478
G1 X71.682 Y25.199 E0.00936
G1 X87.368 Y40.885 E0.36802
G1 X87.368 Y41.449 E0.00936
G1 X71.118 Y25.199 E0.38126
G1 X70.553 Y25.199 E0.00936
G1 X87.368 Y42.014 E0.39450
G1 X87.368 Y42.578 E0.00936
G1 X69.989 Y25.199 E0.40774
G1 X69.425 Y25.199 E0.00936
G1 X87.368 Y43.142 E0.42098
G1 X87.368 Y43.707 E0.00936
G1 X68.860 Y25.199 E0.43422
M73 P0 R70
G1 X68.296 Y25.199 E0.00936
G1 X87.368 Y44.271 E0.44746
G1 X87.368 Y44.835 E0.00936
G1 X67.732 Y25.199 E0.46070
G1 X67.167 Y25.199 E0.00936
G1 X87.368 Y45.400 E0.47394
G1 X87.368 Y45.964 E0.00936
G1 X66.603 Y25.199 E0.48719
M73 P1 R70
G1 X66.039 Y25.199 E0.00936
G1 X87.368 Y46.528 E0.50043
G1 X87.368 Y47.093 E0.00936
G1 X65.474 Y25.199 E0.51367
G1 X64.910 Y25.199 E0.00936
G1 X87.368 Y47.657 E0.52691
G1 X87.368 Y48.221 E0.00936
G1 X64.346 Y25.199 E0.54015
G1 X63.781 Y25.199 E0.00936
G1 X87.368 Y48.786 E0.55339
G1 X87.368 Y49.350 E0.00936
G1 X63.217 Y25.199 E0.56663
G1 X62.653 Y25.199 E0.00936
G1 X87.368 Y49.914 E0.57987
G1 X87.368 Y50.479 E0.00936
G1 X62.088 Y25.199 E0.59311
G1 X61.524 Y25.199 E0.00936
G1 X87.368 Y51.043 E0.60635
G1 X87.368 Y51.607 E0.00936
G1 X60.959 Y25.199 E0.61959
G1 X60.395 Y25.199 E0.00936
G1 X87.368 Y52.172 E0.63284
G1 X87.368 Y52.736 E0.00936
G1 X59.831 Y25.199 E0.64608
G1 X59.266 Y25.199 E0.00936
G1 X87.368 Y53.300 E0.65932
G1 X87.368 Y53.865 E0.00936
G1 X58.702 Y25.199 E0.67256
G1 X58.138 Y25.199 E0.00936
G1 X87.368 Y54.429 E0.68580
G1 X87.368 Y54.803 E0.00620
G1 X87.177 Y54.803 E0.00316
G1 X57.573 Y25.199 E0.69457
G1 X57.009 Y25.199 E0.00936
G1 X86.613 Y54.803 E0.69457
G1 X86.048 Y54.803 E0.00936
G1 X56.445 Y25.199 E0.69457
G1 X55.880 Y25.199 E0.00936
G1 X85.484 Y54.803 E0.69457
G1 X84.920 Y54.803 E0.00936
G1 X55.316 Y25.199 E0.69457
G1 X55.007 Y25.199 E0.00513
G1 X54.859 Y25.306 E0.00303
G1 X84.355 Y54.803 E0.69206
G1 X83.791 Y54.803 E0.00936
G1 X54.548 Y25.560 E0.68610
G1 X54.238 Y25.814 E0.00665
G1 X83.227 Y54.802 E0.68014
G1 X82.662 Y54.802 E0.00936
G1 X53.927 Y26.068 E0.67418
G1 X53.617 Y26.322 E0.00665
G1 X82.098 Y54.802 E0.66822
G1 X81.534 Y54.802 E0.00936
G1 X53.307 Y26.576 E0.66226
G1 X52.996 Y26.829 E0.00665
G1 X80.969 Y54.802 E0.65631
G1 X80.405 Y54.802 E0.00936
G1 X52.686 Y27.083 E0.65035
G1 X52.376 Y27.337 E0.00665
G1 X79.841 Y54.802 E0.64439
G1 X79.276 Y54.802 E0.00936
G1 X52.065 Y27.591 E0.63843
G1 X51.755 Y27.845 E0.00665
G1 X78.712 Y54.802 E0.63247
G1 X78.147 Y54.802 E0.00936
G1 X51.444 Y28.099 E0.62651
G1 X51.134 Y28.353 E0.00665
G1 X77.583 Y54.802 E0.62055
M73 P2 R70
G1 X77.019 Y54.802 E0.00936
G1 X50.824 Y28.607 E0.61459
G1 X50.513 Y28.861 E0.00665
G1 X76.454 Y54.802 E0.60863
G1 X75.890 Y54.802 E0.00936
G1 X50.203 Y29.115 E0.60268
G1 X49.893 Y29.369 E0.00665
G1 X75.326 Y54.802 E0.59672
G1 X74.761 Y54.802 E0.00936
G1 X49.582 Y29.623 E0.59076
G1 X49.272 Y29.877 E0.00665
G1 X74.197 Y54.802 E0.58480
G1 X73.633 Y54.802 E0.00936
G1 X48.951 Y30.121 E0.57907
G1 X48.726 Y30.207 E0.00401
G1 X48.473 Y30.207 E0.00419
G1 X73.068 Y54.802 E0.57706
G1 X72.504 Y54.802 E0.00936
G1 X47.908 Y30.206 E0.57707
G1 X47.344 Y30.206 E0.00937
G1 X71.940 Y54.802 E0.57708
G1 X71.375 Y54.802 E0.00936
G1 X46.779 Y30.206 E0.57708
M73 P2 R69
G1 X46.214 Y30.205 E0.00937
G1 X70.811 Y54.802 E0.57709
G1 X70.246 Y54.802 E0.00936
G1 X45.650 Y30.205 E0.57710
G1 X45.085 Y30.205 E0.00937
G1 X69.682 Y54.802 E0.57710
G1 X69.118 Y54.802 E0.00936
G1 X44.520 Y30.204 E0.57711
G1 X43.956 Y30.204 E0.00937
G1 X68.553 Y54.802 E0.57712
G1 X67.989 Y54.802 E0.00936
G1 X43.391 Y30.204 E0.57713
G1 X42.826 Y30.203 E0.00937
G1 X67.425 Y54.802 E0.57713
G1 X66.860 Y54.802 E0.00936
G1 X42.262 Y30.203 E0.57714
G1 X41.697 Y30.203 E0.00937
G1 X66.296 Y54.802 E0.57715
G1 X65.732 Y54.802 E0.00936
G1 X41.132 Y30.202 E0.57715
G1 X40.568 Y30.202 E0.00937
G1 X65.167 Y54.802 E0.57716
G1 X64.603 Y54.802 E0.00936
G1 X40.003 Y30.202 E0.57717
G1 X39.438 Y30.201 E0.00937
G1 X64.039 Y54.802 E0.57718
G1 X63.474 Y54.802 E0.00936
G1 X38.874 Y30.201 E0.57718
G1 X38.309 Y30.201 E0.00937
G1 X62.910 Y54.802 E0.57719
G1 X62.345 Y54.802 E0.00936
G1 X37.744 Y30.200 E0.57720
G1 X37.180 Y30.200 E0.00937
G1 X61.781 Y54.802 E0.57720
G1 X61.217 Y54.801 E0.00936
G1 X36.615 Y30.200 E0.57721
G1 X36.050 Y30.199 E0.00937
G1 X60.652 Y54.801 E0.57722
G1 X60.088 Y54.801 E0.00936
G1 X35.486 Y30.199 E0.57723
G1 X34.921 Y30.199 E0.00937
G1 X59.524 Y54.801 E0.57723
G1 X58.959 Y54.801 E0.00936
G1 X34.356 Y30.198 E0.57724
G1 X33.792 Y30.198 E0.00937
G1 X58.395 Y54.801 E0.57725
G1 X57.831 Y54.801 E0.00936
G1 X33.227 Y30.198 E0.57725
M73 P3 R69
G1 X32.662 Y30.197 E0.00937
G1 X57.266 Y54.801 E0.57726
G1 X56.702 Y54.801 E0.00936
G1 X32.632 Y30.732 E0.56472
G1 X32.632 Y31.296 E0.00936
G1 X56.138 Y54.801 E0.55148
G1 X55.573 Y54.801 E0.00936
G1 X32.632 Y31.860 E0.53824
G1 X32.632 Y32.425 E0.00936
G1 X55.009 Y54.801 E0.52500
G1 X52.000 Y52.357 E0.06432
G1 X32.632 Y32.989 E0.45441
G1 X32.632 Y33.553 E0.00936
G1 X48.956 Y49.877 E0.38300
G1 X48.720 Y49.793 E0.00416
G1 X48.308 Y49.793 E0.00684
G1 X32.632 Y34.118 E0.36779
G1 X32.632 Y34.682 E0.00936
G1 X47.744 Y49.794 E0.35455
G1 X47.180 Y49.794 E0.00936
G1 X32.632 Y35.246 E0.34132
G1 X32.632 Y35.811 E0.00936
G1 X46.616 Y49.794 E0.32809
G1 X46.052 Y49.795 E0.00936
G1 X32.632 Y36.375 E0.31486
G1 X32.632 Y36.939 E0.00936
G1 X45.488 Y49.795 E0.30162
G1 X44.924 Y49.795 E0.00936
G1 X32.632 Y37.504 E0.28839
G1 X32.632 Y38.068 E0.00936
G1 X44.360 Y49.796 E0.27516
G1 X43.796 Y49.796 E0.00936
G1 X32.632 Y38.632 E0.26192
G1 X32.632 Y39.197 E0.00936
G1 X43.232 Y49.796 E0.24869
G1 X42.668 Y49.797 E0.00936
G1 X32.632 Y39.761 E0.23546
G1 X32.632 Y40.325 E0.00936
G1 X42.104 Y49.797 E0.22223
G1 X41.540 Y49.797 E0.00936
G1 X32.632 Y40.890 E0.20899
G1 X32.632 Y41.454 E0.00936
G1 X40.976 Y49.798 E0.19576
G1 X40.412 Y49.798 E0.00936
G1 X32.632 Y42.018 E0.18253
G1 X32.632 Y42.583 E0.00936
G1 X39.848 Y49.798 E0.16930
G1 X39.284 Y49.799 E0.00936
G1 X32.632 Y43.147 E0.15606
G1 X32.632 Y43.711 E0.00936
G1 X38.720 Y49.799 E0.14283
G1 X38.156 Y49.799 E0.00936
G1 X32.632 Y44.276 E0.12960
G1 X32.632 Y44.840 E0.00936
G1 X37.592 Y49.800 E0.11636
G1 X37.028 Y49.800 E0.00936
G1 X32.632 Y45.404 E0.10313
G1 X32.632 Y45.969 E0.00936
G1 X36.464 Y49.800 E0.08990
G1 X35.900 Y49.801 E0.00936
G1 X32.632 Y46.533 E0.07667
G1 X32.632 Y47.097 E0.00936
G1 X35.336 Y49.801 E0.06343
G1 X34.772 Y49.801 E0.00936
G1 X32.632 Y47.662 E0.05020
G1 X32.632 Y48.226 E0.00936
G1 X34.208 Y49.802 E0.03697
G1 X33.644 Y49.802 E0.00936
G1 X32.632 Y48.790 E0.02373
G1 X32.632 Y49.355 E0.00936
G1 X33.259 Y49.982 E0.01471
;WIPE_START
G1 F6240.000
G1 X32.632 Y49.355 E-0.28342
G1 X32.632 Y48.790 E-0.18042
G1 X33.287 Y49.445 E-0.29616
;WIPE_END
G1 E-0.04000 F2100.000
G1 Z0.500 F7800.000
G1 X48.671 Y79.908
G1 Z0.100
G1 E0.80000 F2100.000
;TYPE:External perimeter
;WIDTH:0.42
G1 F1800.000
G1 X48.841 Y79.843 E0.00302
G1 X54.828 Y74.944 E0.12818
G1 X54.957 Y74.900 E0.00225
G1 X87.545 Y74.901 E0.53997
G1 X87.633 Y74.930 E0.00154
G1 X87.667 Y75.033 E0.00180
G1 X87.667 Y104.967 E0.49598
G1 X87.633 Y105.070 E0.00180
G1 X87.533 Y105.102 E0.00175
G1 X54.957 Y105.100 E0.53977
G1 X54.828 Y105.056 E0.00225
G1 X48.828 Y100.149 E0.12843
G1 X48.669 Y100.092 E0.00280
G1 X32.467 Y100.102 E0.26844
G1 X32.367 Y100.070 E0.00175
G1 X32.333 Y99.967 E0.00180
G1 X32.333 Y80.033 E0.33029
G1 X32.367 Y79.930 E0.00180
G1 X32.467 Y79.898 E0.00175
G1 X48.611 Y79.908 E0.26749
;WIPE_START
G1 F6240.000
G1 X48.841 Y79.843 E-0.07645
G1 X50.496 Y78.489 E-0.68355
;WIPE_END
G1 E-0.04000 F2100.000
G1 Z0.500 F7800.000
G1 X87.547 Y75.827
G1 Z0.100
G1 E0.80000 F2100.000
;TYPE:Solid infill
;WIDTH:0.420503
G1 F1800.000
G1 X86.920 Y75.200 E0.01472
G1 X86.355 Y75.200 E0.00936
G1 X87.368 Y76.212 E0.02375
G1 X87.368 Y76.777 E0.00936
G1 X85.791 Y75.200 E0.03699
G1 X85.227 Y75.200 E0.00936
G1 X87.368 Y77.341 E0.05024
G1 X87.368 Y77.905 E0.00936
G1 X84.662 Y75.200 E0.06348
G1 X84.098 Y75.200 E0.00936
G1 X87.368 Y78.470 E0.07672
G1 X87.368 Y79.034 E0.00936
G1 X83.534 Y75.200 E0.08996
G1 X82.969 Y75.200 E0.00936
G1 X87.368 Y79.598 E0.10320
G1 X87.368 Y80.163 E0.00936
G1 X82.405 Y75.200 E0.11644
G1 X81.840 Y75.200 E0.00936
G1 X87.368 Y80.727 E0.12968
G1 X87.368 Y81.291 E0.00936
G1 X81.276 Y75.200 E0.14292
G1 X80.712 Y75.200 E0.00936
G1 X87.368 Y81.856 E0.15616
G1 X87.368 Y82.420 E0.00936
G1 X80.147 Y75.200 E0.16940
G1 X79.583 Y75.200 E0.00936
G1 X87.368 Y82.984 E0.18264
G1 X87.368 Y83.549 E0.00936
G1 X79.019 Y75.200 E0.19589
G1 X78.454 Y75.200 E0.00936
G1 X87.368 Y84.113 E0.20913
G1 X87.368 Y84.677 E0.00936
G1 X77.890 Y75.200 E0.22237
G1 X77.326 Y75.200 E0.00936
G1 X87.368 Y85.242 E0.23561
G1 X87.368 Y85.806 E0.00936
G1 X76.761 Y75.200 E0.24885
M73 P3 R68
G1 X76.197 Y75.199 E0.00936
G1 X87.368 Y86.370 E0.26209
G1 X87.368 Y86.935 E0.00936
G1 X75.633 Y75.199 E0.27533
G1 X75.068 Y75.199 E0.00936
G1 X87.368 Y87.499 E0.28857
G1 X87.368 Y88.063 E0.00936
G1 X74.504 Y75.199 E0.30181
G1 X73.940 Y75.199 E0.00936
G1 X87.368 Y88.628 E0.31505
G1 X87.368 Y89.192 E0.00936
G1 X73.375 Y75.199 E0.32829
G1 X72.811 Y75.199 E0.00936
G1 X87.368 Y89.756 E0.34154
G1 X87.368 Y90.321 E0.00936
G1 X72.246 Y75.199 E0.35478
G1 X71.682 Y75.199 E0.00936
G1 X87.368 Y90.885 E0.36802
G1 X87.368 Y91.449 E0.00936
G1 X71.118 Y75.199 E0.38126
G1 X70.553 Y75.199 E0.00936
G1 X87.368 Y92.014 E0.39450
G1 X87.368 Y92.578 E0.00936
G1 X69.989 Y75.199 E0.40774
G1 X69.425 Y75.199 E0.00936
G1 X87.368 Y93.142 E0.42098
G1 X87.368 Y93.707 E0.00936
G1 X68.860 Y75.199 E0.43422
G1 X68.296 Y75.199 E0.00936
G1 X87.368 Y94.271 E0.44746
G1 X87.368 Y94.835 E0.00936
G1 X67.732 Y75.199 E0.46070
M73 P4 R68
G1 X67.167 Y75.199 E0.00936
G1 X87.368 Y95.400 E0.47394
G1 X87.368 Y95.964 E0.00936
G1 X66.603 Y75.199 E0.48719
G1 X66.039 Y75.199 E0.00936
G1 X87.368 Y96.528 E0.50043
G1 X87.368 Y97.093 E0.00936
G1 X65.474 Y75.199 E0.51367
G1 X64.910 Y75.199 E0.00936
G1 X87.368 Y97.657 E0.52691
G1 X87.368 Y98.221 E0.00936
G1 X64.346 Y75.199 E0.54015
G1 X63.781 Y75.199 E0.00936
G1 X87.368 Y98.786 E0.55339
G1 X87.368 Y99.350 E0.00936
G1 X63.217 Y75.199 E0.56663
G1 X62.653 Y75.199 E0.00936
G1 X87.368 Y99.914 E0.57987
G1 X87.368 Y100.479 E0.00936
G1 X62.088 Y75.199 E0.59311
G1 X61.524 Y75.199 E0.00936
G1 X87.368 Y101.043 E0.60635
G1 X87.368 Y101.607 E0.00936
G1 X60.959 Y75.199 E0.61959
G1 X60.395 Y75.199 E0.00936
G1 X87.368 Y102.172 E0.63284
G1 X87.368 Y102.736 E0.00936
G1 X59.831 Y75.199 E0.64608
G1 X59.266 Y75.199 E0.00936
G1 X87.368 Y103.300 E0.65932
G1 X87.368 Y103.865 E0.00936
G1 X58.702 Y75.199 E0.67256
G1 X58.138 Y75.199 E0.00936
G1 X87.368 Y104.429 E0.68580
G1 X87.368 Y104.803 E0.00620
G1 X87.177 Y104.803 E0.00316
G1 X57.573 Y75.199 E0.69457
G1 X57.009 Y75.199 E0.00936
G1 X86.613 Y104.803 E0.69457
G1 X86.048 Y104.803 E0.00936
G1 X56.445 Y75.199 E0.69457
G1 X55.880 Y75.199 E0.00936
G1 X85.484 Y104.803 E0.69457
G1 X84.920 Y104.803 E0.00936
